svg/Outline/arrow-undo-circle.svg

<svg viewBox="0 0 24 24" xmlns="http://www.w3.org/2000/svg" width="24" height="24"><path d="M11.19 7.02a.5.5 0 0 1 .8.3l.01.06v1.87c1.92.11 3.2.88 4.01 2.04a7.6 7.6 0 0 1 1.1 4.3.5.5 0 0 1-.88.3 5 5 0 0 0-1.77-1.6c-.6-.31-1.35-.5-2.46-.55v1.85a.5.5 0 0 1-.81.36l-3.8-3.36a1.47 1.47 0 0 1 0-2.2z"/><path fill-rule="evenodd" d="M12 1A11 11 0 1 1 12 23A11 11 0 0 1 12 1M12 2.8A9.2 9.2 0 1 0 12 21.2A9.2 9.2 0 0 0 12 2.8" clip-rule="evenodd"/></svg>

<svg viewBox="0 0 24 24" xmlns="http://www.w3.org/2000/svg" width="24" height="24"><path d="M11.19 7.02A.5 .5 0 0 1 11.99 7.32L12 9.25C13.92 9.36 15.2 10.13 16.01 11.29A7.6 7.6 0 0 1 17.11 15.59A.5 .5 0 0 1 16.23 15.89A5 5 0 0 0 14.46 14.29C13.86 13.98 13.11 13.79 12 13.74L12 15.59A.5 .5 0 0 1 11.19 15.95L7.39 12.59A1.47 1.47 0 0 1 7.39 10.39Z"/><path fill-rule="evenodd" d="M12 1A11 11 0 1 1 12 23A11 11 0 0 1 12 1M12 2.8A9.2 9.2 0 1 0 12 21.2A9.2 9.2 0 0 0 12 2.8" clip-rule="evenodd"/></svg>
